X: 2
T: The Peacock's Feathers
R: hornpipe
M: 4/4
L: 1/8
K: Dmaj
G| AFDF A3A | defd B2ef | g2fg egdB | AGFG E3G || AFDF A3A | defd B2ef | g2fg egdB | Adfe d3:|:g| af(3gfe (3fedec | defd B2ef | g2fg egdB |AGFG E3G||AFDF A3A | defd B2ef | g2fg egdB | Adfe d3:|


Tune 665	Setting 28274

